X:128
%%etbk:tnset id:246,pos:1,rep:3x,ant:
%%etbk:wsite http://www.thesession.org/tunes/display/284
%%etbk:video src:ytube,cde:ietRxTd4rxU,desc:first tune
%%etbk:pldat 2016-06-14T17:21,2015-12-29T16:37,2015-12-22T17:40,2015-09-30T15:56,2015-08-16T15:18,2015-08-11T15:45,2015-07-29T17:08,2015-07-24T18:24,2015-07-17T09:34,2015-07-15T17:57,2015-05-31T12:09,2015-05-27T19:02,2015-04-22T16:34,2015-04-21T16:15,2015-03-23T18:44,2015-03-04T17:41,2015-02-17T17:26,2015-02-10T17:59,2015-02-02T18:56,2015-01-29T18:08,2015-01-27T17:18,2015-01-26T19:03,2015-01-22T19:00,2015-01-18T14:10,2015-01-17T14:58,2015-01-13T17:56,2015-01-07T17:23,2015-01-06T19:24,2015-01-05T19:35,2014-12-31T15:38,2014-12-30T17:41,2014-12-29T17:05,2014-09-09T18:32,2014-05-05T19:17,2014-05-02T18:07,2014-04-12T15:29,2014-04-09T17:54,2014-03-26T17:13,2014-03-25T16:21,2014-03-18T17:15,2014-02-27T18:47,2014-02-20T19:29,2014-02-15T17:11,2014-02-12T18:55,2014-02-08T13:24,2014-02-07T17:18,2014-02-05T16:28,2013-11-21T18:44,2013-11-17T14:56,2013-11-16T15:44,2013-11-12T18:27,2013-11-11T18:14,2013-11-10T15:45,2013-10-03T19:07,2013-10-02T15:55,2013-09-16T15:18,2013-08-28T16:18,2013-05-22T17:33,2013-05-10T15:53
T: Cameronian, The
Z: Piano Box Version by Martin Fleischmann
H: Created 2013-02-19 /  Last Modified 2013-02-19
M: 4/4
L: 1/8
R: reel
K: Dmaj
|: "D"!4!A2!2!FA !1!DAFA | "A"!3!G!1!E !3!(3E!2!E!1!E !2!G!3!B!5!d!3!B | "D"!1!A2!2!F!4!A !1!DAFA | "A"!3!GBAG !2!F!1!DD2 |
| "D"!4!A!2!FFF !5!d!2!FFF | "A"!3!G!1!E !3!(3E!2!E!1!E !2!G!3!B!5!d!3!B | "D"!1!A2!2!F!4!A !1!DAFA | "A"!3!GBAG "D"!2!F!1!DD2:|
|: "D"!2!A!4!ddc d3!1!A | "A"!2!B!1!d!2!ef !4!gfe!1!d | !2!c!1!A!4!eA !5!fAeA | !2!c!1!d!2!ef !4!gfeg |
| "D"!3!faeg !3!faeg | !3!fd!1!d!2!c !1!defg | !5!afge !1!d2!5!ed | "A"!3!c!1!A!3!G!1!E "D"!2!F!1!DD2:|


